Newaita-dark/apps/48/unity-editor-icon.svg

<svg height="48pt" viewBox="0 0 48 48" width="48pt" xmlns="http://www.w3.org/2000/svg" xmlns:xlink="http://www.w3.org/1999/xlink"><linearGradient id="a" gradientUnits="userSpaceOnUse" x1="23.81478" x2="23.81478" y1="42.0509045" y2="44.03547050005"><stop offset="0" stop-opacity=".27451"/><stop offset="1" stop-opacity="0"/></linearGradient><linearGradient id="b"><stop offset="0" stop-opacity=".313726"/><stop offset=".222222" stop-opacity=".27451"/><stop offset="1" stop-opacity="0"/></linearGradient><radialGradient id="c" cx="450.908936" cy="189.579361" gradientTransform="matrix(.00000026 -.117199 -.210958 -.00000015 73.482629 95.392999)" gradientUnits="userSpaceOnUse" r="21.166656" xlink:href="#b"/><radialGradient id="d" cx="450.908936" cy="189.579361" gradientTransform="matrix(-.00000026 .117199 .210958 .00000015 -5.759371 -11.291218)" gradientUnits="userSpaceOnUse" r="21.166656" xlink:href="#b"/><radialGradient id="e" cx="450.908936" cy="189.579361" gradientTransform="matrix(-.00000026 -.117199 .210958 -.00000015 -5.759371 95.392999)" gradientUnits="userSpaceOnUse" r="21.166656" xlink:href="#b"/><radialGradient id="f" cx="450.908936" cy="189.579361" gradientTransform="matrix(.00000026 .117199 -.210958 .00000015 73.482626 -11.291219)" gradientUnits="userSpaceOnUse" r="21.166656" xlink:href="#b"/><linearGradient id="g" gradientUnits="userSpaceOnUse" x1="253.999985" x2="254" y1="233.5" y2="-168.666656"><stop offset="0" stop-color="#e0e0e0"/><stop offset="1" stop-color="#bdbdbd"/></linearGradient><linearGradient id="h" gradientUnits="userSpaceOnUse" x1="23.814816" x2="23.814816" y1="42.05096580616" y2="4.34417306195"><stop offset="0" stop-color="#78909c"/><stop offset="1" stop-color="#90a4ae"/></linearGradient><path d="m33.738281 41.757812h.246094v2.351563h-.246094zm0 0" fill="url(#a)"/><path d="m33.984375 42.050781h3.96875v-1.984375h-3.96875zm0 0" fill="url(#c)"/><path d="m33.738281 42.050781h-3.96875v1.984375h3.96875zm0 0" fill="url(#d)"/><path d="m33.738281 42.050781h-3.96875v-1.984375h3.96875zm0 0" fill="url(#e)"/><path d="m33.984375 42.050781h3.96875v1.984375h-3.96875zm0 0" fill="url(#f)"/><path d="m42.329291 32.434704 132.279035-137.611858 179.94115-37.03813 58.202775 174.649988-58.202775 174.608326-179.94115-37.038129zm0 0" fill="url(#g)" stroke="#000" stroke-width=".264583" transform="matrix(.093759 0 0 .093759 0 20.158175)"/><path d="m33.574219 4.425781c-.160157-.007812-.320313.003907-.476563.035157l-15.519531 3.070312c-.964844.179688-1.660156 1.023438-1.652344 2-.308593-.179688-.65625-.277344-1.015625-.28125-.59375 0-1.160156.257812-1.542968.710938l-10.421876 11.90625c-.664062.761718-.664062 1.898437 0 2.660156l10.421876 11.90625c.636718.746094 1.714843.925781 2.558593.425781-.003906.359375.085938.710937.261719 1.023437.296875.515626.804688.875 1.390625.980469l15.519531 3.070313c.992188.195312 1.976563-.371094 2.300782-1.328125l5.101562-14.976563c.328125-.921875-.054688-1.949218-.90625-2.429687.3125-.175781.570312-.429688.75-.738281.300781-.515626.359375-1.132813.15625-1.695313l-5.101562-14.976563c-.269532-.785156-.992188-1.328124-1.824219-1.363281zm-4.011719 4.847657-6.894531 11.941406h-13.785157l7.519532-8.597656c.335937-.375.519531-.863282.515625-1.367188.433593.257812.949219.34375 1.441406.238281zm3.4375 1.984374 3.683594 10.808594c.15625.480469.488281.882813.925781 1.132813-.4375.246093-.769531.648437-.925781 1.128906l-3.683594 10.808594-6.894531-11.9375zm-24.117188 13.925782h13.785157l6.894531 11.9375-11.203125-2.214844c-.492187-.105469-1.007813-.019531-1.445313.238281.007813-.503906-.175781-.992187-.511718-1.367187zm0 0" fill="url(#h)"/><path d="m33.574219 4.425781c-.160157-.007812-.320313.003907-.476563.035157l-15.519531 3.070312c-.964844.179688-1.660156 1.023438-1.652344 2-.308593-.179688-.65625-.277344-1.015625-.28125-.59375 0-1.160156.257812-1.542968.710938l-10.421876 11.90625c-.398437.457031-.570312 1.070312-.46875 1.664062.0625-.367188.222657-.714844.46875-1l10.421876-11.90625c.382812-.453125.949218-.710938 1.542968-.710938.359375.003907.707032.101563 1.015625.28125-.007812-.976562.6875-1.824218 1.652344-2l15.519531-3.070312c.15625-.03125.316406-.042969.476563-.035156.832031.035156 1.554687.574218 1.824219 1.363281l5.101562 14.976563c.042969.109374.070312.226562.089844.339843.054687-.335937.027344-.679687-.089844-1.003906l-5.101562-14.976563c-.269532-.785156-.992188-1.328124-1.824219-1.363281zm-4.011719 5.511719-.433594.085938-6.460937 11.191406h-13.203125l-.582032.660156h13.785157zm-3.265625 13.59375-.191406.328125 6.894531 11.941406 3.683594-10.808593c.15625-.480469.488281-.882813.925781-1.128907-.160156-.089843-.304687-.203125-.433594-.332031-.226562.222656-.394531.496094-.492187.796875l-3.683594 10.808594zm13.730469 0c-.128906.128906-.277344.242188-.433594.332031.527344.296875.894531.820313.996094 1.421875.105468-.640625-.105469-1.292968-.5625-1.753906zm-31.144532 2.3125 7.519532 8.597656c.335937.375.519531.863282.511718 1.367188.4375-.257813.953126-.34375 1.445313-.238282l11.203125 2.214844-.433594-.75-10.769531-2.128906c-.492187-.105469-1.007813-.019531-1.445313.238281.007813-.503906-.175781-.992187-.511718-1.367187l-6.9375-7.933594zm0 0" fill="#fff" fill-opacity=".392157"/><path d="m29.5625 8.496094-11.203125 2.214844c-.492187.105468-1.007813.019531-1.441406-.238282.003906.503906-.179688.992188-.515625 1.371094l-7.519532 8.59375h.679688l6.839844-7.820312c.335937-.375.519531-.863282.515625-1.367188.433593.257812.949219.34375 1.441406.238281l10.695313-2.113281zm3.4375 1.984375-6.894531 11.941406.226562.386719 6.667969-11.550782 3.683594 10.808594c.089844.277344.238281.53125.4375.742188.140625-.152344.308594-.285156.488281-.386719-.4375-.246094-.769531-.652344-.925781-1.128906zm7.578125 10.574219c-.042969.222656-.121094.433593-.234375.628906-.179688.308594-.4375.5625-.75.738281.179688.105469.347656.234375.488281.390625.101563-.109375.1875-.226562.261719-.351562.246094-.425782.332031-.925782.234375-1.40625zm-38.089844 1.757812c-.121093.609375.046875 1.242188.457031 1.714844l10.421876 11.90625c.636718.746094 1.714843.925781 2.558593.425781-.003906.359375.085938.710937.261719 1.023437.296875.515626.804688.875 1.390625.980469l15.519531 3.070313c.992188.195312 1.976563-.371094 2.300782-1.328125l5.101562-14.976563c.121094-.339844.148438-.707031.078125-1.0625-.019531.097656-.042969.191406-.078125.285156l-5.101562 14.976563c-.324219.957031-1.308594 1.523437-2.300782 1.328125l-15.519531-3.066406c-.585937-.109375-1.09375-.46875-1.390625-.984375-.175781-.3125-.265625-.664063-.261719-1.019531-.84375.496093-1.921875.316406-2.558593-.429688l-10.421876-11.90625c-.230468-.265625-.390624-.589844-.457031-.9375zm6.394531 1.59375.679688.777344h13.105469l6.386719 11.0625.507812.097656-6.894531-11.9375zm0 0" fill-opacity=".313726"/><path d="m1353.414134 178.408169c-6.456077-.31493-12.912154.157465-19.210765 1.417188l-625.609582 123.767715c-38.893925 7.243403-66.922746 41.255904-66.607816 80.622226-12.439757-7.243403-26.454168-11.180035-40.940974-11.337501-23.934724 0-46.76719 10.392709-62.198788 28.658682l-420.117383 479.954192c-26.769099 30.705731-26.769099 76.528129 0 107.23386l420.117383 479.954192c25.666842 30.07587 69.12726 37.319273 103.139762 17.163716-.157465 14.486807 3.464237 28.658682 10.550174 41.255905 11.967362 20.785418 32.437849 35.272224 56.057642 39.523787l625.609582 123.767715c39.996182 7.873264 79.677434-14.959202 92.747053-53.538197l205.649664-603.721907c13.227084-37.161808-2.204514-78.575178-36.531947-97.943408 12.597223-7.085938 22.989932-17.321182 30.233335-29.760939 12.124827-20.785418 14.486807-45.664933 6.298612-68.339934l-205.649664-603.721907c-10.865105-31.650523-39.996182-53.538197-73.536288-54.955385zm-161.716849 195.41442-277.92623 481.37138h-555.694995l303.120676-346.581095c13.542015-15.116668 20.942883-34.799828 20.785418-55.11285 17.478647 10.392709 38.264064 13.856945 58.10469 9.605382zm138.569452 79.992365 148.489764 435.706447c6.298612 19.36823 19.683161 35.587155 37.319273 45.664933-17.636112 9.920313-31.020661 26.139237-37.319273 45.507468l-148.489764 435.706446-277.92623-481.213914zm-972.190677 561.363745h555.694995l277.92623 481.213914-451.610441-89.282817c-19.840626-4.251563-40.626043-.787326-58.262155 9.605383.31493-20.313022-7.085938-39.996183-20.627953-55.11285zm0 0" fill="none" stroke="#212121" stroke-linecap="round" stroke-linejoin="round" stroke-width="11.338583" transform="scale(.0248071)"/><g fill-opacity=".235294"><path d="m34.414062 4.648438-10.597656 18.550781h-21.367187c0 .488281.175781.957031.496093 1.328125l10.421876 11.90625c.636718.746094 1.714843.925781 2.558593.425781-.003906.359375.085938.710937.261719 1.023437.296875.515626.804688.875 1.390625.980469l15.519531 3.070313c.992188.195312 1.976563-.371094 2.300782-1.328125l5.101562-14.976563c.328125-.921875-.054688-1.949218-.90625-2.429687.3125-.175781.570312-.429688.75-.738281.300781-.515626.359375-1.132813.15625-1.695313l-5.101562-14.976563c-.167969-.492187-.519532-.902343-.984376-1.140624zm-1.414062 6.609374 3.683594 10.808594c.15625.480469.488281.882813.925781 1.132813-.4375.246093-.769531.648437-.925781 1.128906l-3.683594 10.808594-6.894531-11.9375zm-24.117188 13.925782h13.785157l6.894531 11.9375-11.203125-2.214844c-.492187-.105469-1.007813-.019531-1.445313.238281.007813-.503906-.175781-.992187-.511718-1.367187zm0 0"/><path d="m34.414062 4.648438-10.597656 18.550781 10.507813 18.589843c.503906-.230468.894531-.65625 1.074219-1.183593l5.101562-14.976563c.328125-.921875-.054688-1.949218-.90625-2.429687.3125-.175781.570312-.429688.75-.738281.300781-.515626.359375-1.132813.15625-1.695313l-5.101562-14.976563c-.167969-.492187-.519532-.902343-.984376-1.140624zm-1.414062 6.609374 3.683594 10.808594c.15625.480469.488281.882813.925781 1.132813-.4375.246093-.769531.648437-.925781 1.128906l-3.683594 10.808594-6.894531-11.9375zm0 0"/></g></svg>

<?xml version="1.0" encoding="UTF-8"?>
<svg xmlns="http://www.w3.org/2000/svg" xmlns:xlink="http://www.w3.org/1999/xlink" width="48pt" height="48pt" viewBox="0 0 48 48" version="1.1">
<defs>
<linearGradient id="linear0" gradientUnits="userSpaceOnUse" x1="254" y1="233.5" x2="254" y2="254.666672" gradientTransform="matrix(0.093759,0,0,0.093759,-0.00000572259,20.158178)">
<stop offset="0" style="stop-color:rgb(0%,0%,0%);stop-opacity:0.27451;"/>
<stop offset="1" style="stop-color:rgb(0%,0%,0%);stop-opacity:0;"/>
</linearGradient>
<radialGradient id="radial0" gradientUnits="userSpaceOnUse" cx="450.908936" cy="189.579361" fx="450.908936" fy="189.579361" r="21.166656" gradientTransform="matrix(0.000000261256,-0.117199,-0.210958,-0.000000152308,73.482629,95.392999)">
<stop offset="0" style="stop-color:rgb(0%,0%,0%);stop-opacity:0.313726;"/>
<stop offset="0.222222" style="stop-color:rgb(0%,0%,0%);stop-opacity:0.27451;"/>
<stop offset="1" style="stop-color:rgb(0%,0%,0%);stop-opacity:0;"/>
</radialGradient>
<radialGradient id="radial1" gradientUnits="userSpaceOnUse" cx="450.908936" cy="189.579361" fx="450.908936" fy="189.579361" r="21.166656" gradientTransform="matrix(-0.000000261256,0.117199,0.210958,0.000000152308,-5.759371,-11.291218)">
<stop offset="0" style="stop-color:rgb(0%,0%,0%);stop-opacity:0.313726;"/>
<stop offset="0.222222" style="stop-color:rgb(0%,0%,0%);stop-opacity:0.27451;"/>
<stop offset="1" style="stop-color:rgb(0%,0%,0%);stop-opacity:0;"/>
</radialGradient>
<radialGradient id="radial2" gradientUnits="userSpaceOnUse" cx="450.908936" cy="189.579361" fx="450.908936" fy="189.579361" r="21.166656" gradientTransform="matrix(-0.000000261256,-0.117199,0.210958,-0.000000152308,-5.759371,95.392999)">
<stop offset="0" style="stop-color:rgb(0%,0%,0%);stop-opacity:0.313726;"/>
<stop offset="0.222222" style="stop-color:rgb(0%,0%,0%);stop-opacity:0.27451;"/>
<stop offset="1" style="stop-color:rgb(0%,0%,0%);stop-opacity:0;"/>
</radialGradient>
<radialGradient id="radial3" gradientUnits="userSpaceOnUse" cx="450.908936" cy="189.579361" fx="450.908936" fy="189.579361" r="21.166656" gradientTransform="matrix(0.000000261256,0.117199,-0.210958,0.000000152308,73.482626,-11.291219)">
<stop offset="0" style="stop-color:rgb(0%,0%,0%);stop-opacity:0.313726;"/>
<stop offset="0.222222" style="stop-color:rgb(0%,0%,0%);stop-opacity:0.27451;"/>
<stop offset="1" style="stop-color:rgb(0%,0%,0%);stop-opacity:0;"/>
</radialGradient>
<linearGradient id="linear1" gradientUnits="userSpaceOnUse" x1="253.999985" y1="233.5" x2="254" y2="-168.666656" gradientTransform="matrix(1,0,0,1,0,0)">
<stop offset="0" style="stop-color:rgb(87.843138%,87.843138%,87.843138%);stop-opacity:1;"/>
<stop offset="1" style="stop-color:rgb(74.117649%,74.117649%,74.117649%);stop-opacity:1;"/>
</linearGradient>
<linearGradient id="linear2" gradientUnits="userSpaceOnUse" x1="960" y1="1695.118164" x2="960" y2="175.118134" gradientTransform="matrix(0.0248071,0,0,0.0248071,0,0.00000000000000282)">
<stop offset="0" style="stop-color:rgb(47.058824%,56.470591%,61.176473%);stop-opacity:1;"/>
<stop offset="1" style="stop-color:rgb(56.470591%,64.313728%,68.235296%);stop-opacity:1;"/>
</linearGradient>
</defs>
<g id="surface1">
<path style=" stroke:none;fill-rule:nonzero;fill:url(#linear0);" d="M 33.738281 41.757812 L 33.984375 41.757812 L 33.984375 44.109375 L 33.738281 44.109375 Z M 33.738281 41.757812 "/>
<path style=" stroke:none;fill-rule:nonzero;fill:url(#radial0);" d="M 33.984375 42.050781 L 37.953125 42.050781 L 37.953125 40.066406 L 33.984375 40.066406 Z M 33.984375 42.050781 "/>
<path style=" stroke:none;fill-rule:nonzero;fill:url(#radial1);" d="M 33.738281 42.050781 L 29.769531 42.050781 L 29.769531 44.035156 L 33.738281 44.035156 Z M 33.738281 42.050781 "/>
<path style=" stroke:none;fill-rule:nonzero;fill:url(#radial2);" d="M 33.738281 42.050781 L 29.769531 42.050781 L 29.769531 40.066406 L 33.738281 40.066406 Z M 33.738281 42.050781 "/>
<path style=" stroke:none;fill-rule:nonzero;fill:url(#radial3);" d="M 33.984375 42.050781 L 37.953125 42.050781 L 37.953125 44.035156 L 33.984375 44.035156 Z M 33.984375 42.050781 "/>
<path style="fill-rule:nonzero;fill:url(#linear1);stroke-width:0.264583;stroke-linecap:butt;stroke-linejoin:miter;stroke:rgb(0%,0%,0%);stroke-opacity:1;stroke-miterlimit:4;" d="M 42.329291 32.434704 L 174.608326 -105.177154 L 354.549476 -142.215284 L 412.752251 32.434704 L 354.549476 207.04303 L 174.608326 170.004901 Z M 42.329291 32.434704 " transform="matrix(0.093759,0,0,0.093759,0,20.158175)"/>
<path style=" stroke:none;fill-rule:nonzero;fill:url(#linear2);" d="M 33.574219 4.425781 C 33.414062 4.417969 33.253906 4.429688 33.097656 4.460938 L 17.578125 7.53125 C 16.613281 7.710938 15.917969 8.554688 15.925781 9.53125 C 15.617188 9.351562 15.269531 9.253906 14.910156 9.25 C 14.316406 9.25 13.75 9.507812 13.367188 9.960938 L 2.945312 21.867188 C 2.28125 22.628906 2.28125 23.765625 2.945312 24.527344 L 13.367188 36.433594 C 14.003906 37.179688 15.082031 37.359375 15.925781 36.859375 C 15.921875 37.21875 16.011719 37.570312 16.1875 37.882812 C 16.484375 38.398438 16.992188 38.757812 17.578125 38.863281 L 33.097656 41.933594 C 34.089844 42.128906 35.074219 41.5625 35.398438 40.605469 L 40.5 25.628906 C 40.828125 24.707031 40.445312 23.679688 39.59375 23.199219 C 39.90625 23.023438 40.164062 22.769531 40.34375 22.460938 C 40.644531 21.945312 40.703125 21.328125 40.5 20.765625 L 35.398438 5.789062 C 35.128906 5.003906 34.40625 4.460938 33.574219 4.425781 Z M 29.5625 9.273438 L 22.667969 21.214844 L 8.882812 21.214844 L 16.402344 12.617188 C 16.738281 12.242188 16.921875 11.753906 16.917969 11.25 C 17.351562 11.507812 17.867188 11.59375 18.359375 11.488281 Z M 33 11.257812 L 36.683594 22.066406 C 36.839844 22.546875 37.171875 22.949219 37.609375 23.199219 C 37.171875 23.445312 36.839844 23.847656 36.683594 24.328125 L 33 35.136719 L 26.105469 23.199219 Z M 23.816406 23.199219 Z M 8.882812 25.183594 L 22.667969 25.183594 L 29.5625 37.121094 L 18.359375 34.90625 C 17.867188 34.800781 17.351562 34.886719 16.914062 35.144531 C 16.921875 34.640625 16.738281 34.152344 16.402344 33.777344 Z M 8.882812 25.183594 "/>
<path style=" stroke:none;fill-rule:nonzero;fill:rgb(100%,100%,100%);fill-opacity:0.392157;" d="M 33.574219 4.425781 C 33.414062 4.417969 33.253906 4.429688 33.097656 4.460938 L 17.578125 7.53125 C 16.613281 7.710938 15.917969 8.554688 15.925781 9.53125 C 15.617188 9.351562 15.269531 9.253906 14.910156 9.25 C 14.316406 9.25 13.75 9.507812 13.367188 9.960938 L 2.945312 21.867188 C 2.546875 22.324219 2.375 22.9375 2.476562 23.53125 C 2.539062 23.164062 2.699219 22.816406 2.945312 22.53125 L 13.367188 10.625 C 13.75 10.171875 14.316406 9.914062 14.910156 9.914062 C 15.269531 9.917969 15.617188 10.015625 15.925781 10.195312 C 15.917969 9.21875 16.613281 8.371094 17.578125 8.195312 L 33.097656 5.125 C 33.253906 5.09375 33.414062 5.082031 33.574219 5.089844 C 34.40625 5.125 35.128906 5.664062 35.398438 6.453125 L 40.5 21.429688 C 40.542969 21.539062 40.570312 21.65625 40.589844 21.769531 C 40.644531 21.433594 40.617188 21.089844 40.5 20.765625 L 35.398438 5.789062 C 35.128906 5.003906 34.40625 4.460938 33.574219 4.425781 Z M 29.5625 9.9375 L 29.128906 10.023438 L 22.667969 21.214844 L 9.464844 21.214844 L 8.882812 21.875 L 22.667969 21.875 Z M 26.296875 23.53125 L 26.105469 23.859375 L 33 35.800781 L 36.683594 24.992188 C 36.839844 24.511719 37.171875 24.109375 37.609375 23.863281 C 37.449219 23.773438 37.304688 23.660156 37.175781 23.53125 C 36.949219 23.753906 36.78125 24.027344 36.683594 24.328125 L 33 35.136719 Z M 40.027344 23.53125 C 39.898438 23.660156 39.75 23.773438 39.59375 23.863281 C 40.121094 24.160156 40.488281 24.683594 40.589844 25.285156 C 40.695312 24.644531 40.484375 23.992188 40.027344 23.53125 Z M 23.816406 23.859375 Z M 8.882812 25.84375 L 16.402344 34.441406 C 16.738281 34.816406 16.921875 35.304688 16.914062 35.808594 C 17.351562 35.550781 17.867188 35.464844 18.359375 35.570312 L 29.5625 37.785156 L 29.128906 37.035156 L 18.359375 34.90625 C 17.867188 34.800781 17.351562 34.886719 16.914062 35.144531 C 16.921875 34.640625 16.738281 34.152344 16.402344 33.777344 L 9.464844 25.84375 Z M 8.882812 25.84375 "/>
<path style=" stroke:none;fill-rule:nonzero;fill:rgb(0%,0%,0%);fill-opacity:0.313726;" d="M 29.5625 8.496094 L 18.359375 10.710938 C 17.867188 10.816406 17.351562 10.730469 16.917969 10.472656 C 16.921875 10.976562 16.738281 11.464844 16.402344 11.84375 L 8.882812 20.4375 L 9.5625 20.4375 L 16.402344 12.617188 C 16.738281 12.242188 16.921875 11.753906 16.917969 11.25 C 17.351562 11.507812 17.867188 11.59375 18.359375 11.488281 L 29.054688 9.375 Z M 33 10.480469 L 26.105469 22.421875 L 26.332031 22.808594 L 33 11.257812 L 36.683594 22.066406 C 36.773438 22.34375 36.921875 22.597656 37.121094 22.808594 C 37.261719 22.65625 37.429688 22.523438 37.609375 22.421875 C 37.171875 22.175781 36.839844 21.769531 36.683594 21.292969 Z M 40.578125 21.054688 C 40.535156 21.277344 40.457031 21.488281 40.34375 21.683594 C 40.164062 21.992188 39.90625 22.246094 39.59375 22.421875 C 39.773438 22.527344 39.941406 22.65625 40.082031 22.8125 C 40.183594 22.703125 40.269531 22.585938 40.34375 22.460938 C 40.589844 22.035156 40.675781 21.535156 40.578125 21.054688 Z M 23.816406 22.421875 Z M 2.488281 22.8125 C 2.367188 23.421875 2.535156 24.054688 2.945312 24.527344 L 13.367188 36.433594 C 14.003906 37.179688 15.082031 37.359375 15.925781 36.859375 C 15.921875 37.21875 16.011719 37.570312 16.1875 37.882812 C 16.484375 38.398438 16.992188 38.757812 17.578125 38.863281 L 33.097656 41.933594 C 34.089844 42.128906 35.074219 41.5625 35.398438 40.605469 L 40.5 25.628906 C 40.621094 25.289062 40.648438 24.921875 40.578125 24.566406 C 40.558594 24.664062 40.535156 24.757812 40.5 24.851562 L 35.398438 39.828125 C 35.074219 40.785156 34.089844 41.351562 33.097656 41.15625 L 17.578125 38.089844 C 16.992188 37.980469 16.484375 37.621094 16.1875 37.105469 C 16.011719 36.792969 15.921875 36.441406 15.925781 36.085938 C 15.082031 36.582031 14.003906 36.402344 13.367188 35.65625 L 2.945312 23.75 C 2.714844 23.484375 2.554688 23.160156 2.488281 22.8125 Z M 8.882812 24.40625 L 9.5625 25.183594 L 22.667969 25.183594 L 29.054688 36.246094 L 29.5625 36.34375 L 22.667969 24.40625 Z M 8.882812 24.40625 "/>
<path style="fill:none;stroke-width:11.338583;stroke-linecap:round;stroke-linejoin:round;stroke:rgb(12.941177%,12.941177%,12.941177%);stroke-opacity:1;stroke-miterlimit:4;" d="M 1353.414134 178.408169 C 1346.958057 178.093239 1340.50198 178.565634 1334.203369 179.825357 L 708.593787 303.593072 C 669.699862 310.836475 641.671041 344.848976 641.985971 384.215298 C 629.546214 376.971895 615.531803 373.035263 601.044997 372.877797 C 577.110273 372.877797 554.277807 383.270506 538.846209 401.536479 L 118.728826 881.490671 C 91.959727 912.196402 91.959727 958.0188 118.728826 988.724531 L 538.846209 1468.678723 C 564.513051 1498.754593 607.973469 1505.997996 641.985971 1485.842439 C 641.828506 1500.329246 645.450208 1514.501121 652.536145 1527.098344 C 664.503507 1547.883762 684.973994 1562.370568 708.593787 1566.622131 L 1334.203369 1690.389846 C 1374.199551 1698.26311 1413.880803 1675.430644 1426.950422 1636.851649 L 1632.600086 1033.129742 C 1645.82717 995.967934 1630.395572 954.554564 1596.068139 935.186334 C 1608.665362 928.100396 1619.058071 917.865152 1626.301474 905.425395 C 1638.426301 884.639977 1640.788281 859.760462 1632.600086 837.085461 L 1426.950422 233.363554 C 1416.085317 201.713031 1386.95424 179.825357 1353.414134 178.408169 Z M 1191.697285 373.822589 L 913.771055 855.193969 L 358.07606 855.193969 L 661.196736 508.612874 C 674.738751 493.496206 682.139619 473.813046 681.982154 453.500024 C 699.460801 463.892733 720.246218 467.356969 740.086844 463.105406 Z M 1330.266737 453.814954 L 1478.756501 889.521401 C 1485.055113 908.889631 1498.439662 925.108556 1516.075774 935.186334 C 1498.439662 945.106647 1485.055113 961.325571 1478.756501 980.693802 L 1330.266737 1416.400248 L 1052.340507 935.186334 Z M 960.065849 935.186334 Z M 358.07606 1015.178699 L 913.771055 1015.178699 L 1191.697285 1496.392613 L 740.086844 1407.109796 C 720.246218 1402.858233 699.460801 1406.32247 681.824689 1416.715179 C 682.139619 1396.402157 674.738751 1376.718996 661.196736 1361.602329 Z M 358.07606 1015.178699 " transform="matrix(0.0248071,0,0,0.0248071,0,0)"/>
<path style=" stroke:none;fill-rule:nonzero;fill:rgb(0%,0%,0%);fill-opacity:0.235294;" d="M 34.414062 4.648438 L 23.816406 23.199219 L 2.449219 23.199219 C 2.449219 23.6875 2.625 24.15625 2.945312 24.527344 L 13.367188 36.433594 C 14.003906 37.179688 15.082031 37.359375 15.925781 36.859375 C 15.921875 37.21875 16.011719 37.570312 16.1875 37.882812 C 16.484375 38.398438 16.992188 38.757812 17.578125 38.863281 L 33.097656 41.933594 C 34.089844 42.128906 35.074219 41.5625 35.398438 40.605469 L 40.5 25.628906 C 40.828125 24.707031 40.445312 23.679688 39.59375 23.199219 C 39.90625 23.023438 40.164062 22.769531 40.34375 22.460938 C 40.644531 21.945312 40.703125 21.328125 40.5 20.765625 L 35.398438 5.789062 C 35.230469 5.296875 34.878906 4.886719 34.414062 4.648438 Z M 33 11.257812 L 36.683594 22.066406 C 36.839844 22.546875 37.171875 22.949219 37.609375 23.199219 C 37.171875 23.445312 36.839844 23.847656 36.683594 24.328125 L 33 35.136719 L 26.105469 23.199219 Z M 23.816406 23.199219 Z M 8.882812 25.183594 L 22.667969 25.183594 L 29.5625 37.121094 L 18.359375 34.90625 C 17.867188 34.800781 17.351562 34.886719 16.914062 35.144531 C 16.921875 34.640625 16.738281 34.152344 16.402344 33.777344 Z M 8.882812 25.183594 "/>
<path style=" stroke:none;fill-rule:nonzero;fill:rgb(0%,0%,0%);fill-opacity:0.235294;" d="M 34.414062 4.648438 L 23.816406 23.199219 L 34.324219 41.789062 C 34.828125 41.558594 35.21875 41.132812 35.398438 40.605469 L 40.5 25.628906 C 40.828125 24.707031 40.445312 23.679688 39.59375 23.199219 C 39.90625 23.023438 40.164062 22.769531 40.34375 22.460938 C 40.644531 21.945312 40.703125 21.328125 40.5 20.765625 L 35.398438 5.789062 C 35.230469 5.296875 34.878906 4.886719 34.414062 4.648438 Z M 33 11.257812 L 36.683594 22.066406 C 36.839844 22.546875 37.171875 22.949219 37.609375 23.199219 C 37.171875 23.445312 36.839844 23.847656 36.683594 24.328125 L 33 35.136719 L 26.105469 23.199219 Z M 33 11.257812 "/>
</g>
</svg>
